actions/audio-input-microphone-muted.svg

<?xml version="1.0" encoding="UTF-8" standalone="no"?><!DOCTYPE svg PUBLIC "-//W3C//DTD SVG 1.1//EN" "http://www.w3.org/Graphics/SVG/1.1/DTD/svg11.dtd"><svg width="100%" height="100%" viewBox="0 0 48 48" version="1.1" xmlns="http://www.w3.org/2000/svg" xmlns:xlink="http://www.w3.org/1999/xlink" xml:space="preserve" style="fill-rule:evenodd;clip-rule:evenodd;stroke-linejoin:round;stroke-miterlimit:1.41421;"><path d="M38,23l-3.4,0c0,1.5 -0.3,2.9 -0.9,4.1l2.5,2.5c1.1,-2 1.8,-4.2 1.8,-6.6Zm-8,0.3c0,-0.1 0,-0.2 0,-0.3l0,-12c0,-3.3 -2.7,-6 -6,-6c-3.3,0 -6,2.7 -6,6l0,0.4l12,11.9Zm-21.4,-16.3l-2.6,2.6l12,12l0,1.4c0,3.3 2.7,6 6,6c0.5,0 0.9,-0.1 1.3,-0.1l3.3,3.3c-1.4,0.7 -3,1 -4.6,1c-5.5,0 -10.6,-4.2 -10.6,-10.2l-3.4,0c0,6.8 5.4,12.5 12,13.4l0,6.6l4,0l0,-6.6c1.8,-0.3 3.5,-0.9 5.1,-1.8l8.4,8.4l2.5,-2.5l-33.4,-33.5Z" style="fill:#fff;fill-rule:nonzero;"/></svg>

<?xml version="1.0" encoding="utf-8"?>
<!-- Generator: Adobe Illustrator 19.2.1, SVG Export Plug-In . SVG Version: 6.00 Build 0)  -->
<svg version="1.1" id="Layer_1" xmlns="http://www.w3.org/2000/svg" xmlns:xlink="http://www.w3.org/1999/xlink" x="0px" y="0px"
	 viewBox="0 0 48 48" style="enable-background:new 0 0 48 48;" xml:space="preserve">
<style type="text/css">
	.st0{fill:#454545;}
</style>
<path class="st0" d="M38,23h-3.4c0,1.5-0.3,2.9-0.9,4.1l2.5,2.5C37.3,27.6,38,25.4,38,23z M30,23.3c0-0.1,0-0.2,0-0.3V11
	c0-3.3-2.7-6-6-6s-6,2.7-6,6v0.4L30,23.3z M8.6,7L6,9.6l12,12V23c0,3.3,2.7,6,6,6c0.5,0,0.9-0.1,1.3-0.1l3.3,3.3c-1.4,0.7-3,1-4.6,1
	c-5.5,0-10.6-4.2-10.6-10.2H10c0,6.8,5.4,12.5,12,13.4V43h4v-6.6c1.8-0.3,3.5-0.9,5.1-1.8l8.4,8.4l2.5-2.5L8.6,7z"/>
</svg>
